svg/color/wfcon.svg

<svg width="40" height="40" viewBox="0 0 40 40" fill="none" xmlns="http://www.w3.org/2000/svg">
<g clip-path="url(#clip0_820_3789)">
<path d="M20 0C31.0457 0 40 8.9543 40 20C40 31.0457 31.0457 40 20 40C8.95431 40 7.90517e-06 31.0457 0 20C6.58765e-07 8.95431 8.95431 1.97595e-06 20 0Z" fill="#F8D2D3"/>
<path d="M26 6C30.4183 6 34 9.58172 34 14V26C34 30.4183 30.4183 34 26 34H14C9.58172 34 6 30.4183 6 26V14C6 9.58172 9.58172 6 14 6H26Z" fill="#DD1E25"/>
<path d="M28.9112 22.9805C28.9112 22.0141 28.5125 21.4514 27.7754 21.4514C27.038 21.4514 26.6396 22.0141 26.6396 22.9805C26.6396 23.9527 27.0326 24.5096 27.7754 24.5096C28.5179 24.5096 28.9112 23.9527 28.9112 22.9805ZM29.8068 22.9805C29.8068 24.1709 28.9604 25.0065 27.7754 25.0065C26.5958 25.0065 25.7441 24.1709 25.7441 22.9805C25.7441 21.7955 26.6012 20.9546 27.7754 20.9546C28.9547 20.9546 29.8068 21.7955 29.8068 22.9805ZM23.6686 23.1552C23.6686 23.2642 23.6851 23.3354 23.7286 23.4227H24.3786V24.3892C24.1657 24.4769 23.9526 24.515 23.7343 24.515C22.9477 24.515 22.5382 23.9527 22.5382 22.9805C22.5382 22.0084 22.9477 21.446 23.6905 21.446C24.1874 21.446 24.4768 21.6919 24.6461 22.1176L24.7062 22.2705H25.0995V21.2932C24.608 21.0584 24.1657 20.9546 23.6523 20.9546C22.4508 20.9546 21.6429 21.7574 21.6429 22.9859C21.6429 24.2202 22.4292 25.0065 23.6523 25.0065C24.1381 25.0065 24.6407 24.8699 25.1811 24.6024V22.8985H23.7286C23.6851 22.9859 23.6686 23.0517 23.6686 23.1552ZM20.3483 22.1615C20.3483 21.7627 20.1024 21.5499 19.6109 21.5499H18.9666V22.7784H19.6109C20.097 22.7784 20.3483 22.5545 20.3483 22.1615ZM16.0724 23.2753L15.5371 21.8282L15.0021 23.2753H16.0724ZM21.4075 24.4657C21.4405 24.5258 21.4568 24.5969 21.4568 24.6897C21.4568 24.7825 21.4405 24.8536 21.4075 24.9137C21.2874 24.9299 21.1346 24.9407 20.9818 24.9407C20.4522 24.9407 20.1955 24.7225 20.1351 24.2145L20.1135 24.0235C20.0481 23.472 19.8676 23.2591 19.2672 23.2591H18.9666V24.4222H19.4854V24.8972H16.0505V24.4222H16.4984L16.2471 23.7395H14.8273L14.5761 24.4222H15.0348V24.8972H13.5877V24.4222H13.9699L15.3077 21.0746H16.034L17.3994 24.4222H18.153V21.5499H17.6888V21.0746H19.8841C20.665 21.0746 21.1727 21.4625 21.1727 22.0849C21.1727 22.7019 20.665 23.0298 20.1736 23.0517V23.0679C20.6704 23.106 20.8725 23.3846 20.9217 23.816L20.9434 24.0181C20.9761 24.3349 21.0418 24.4769 21.2928 24.4769C21.3367 24.4769 21.3748 24.4711 21.4075 24.4657ZM13.0851 21.5499C13.4508 21.5499 13.5766 21.7081 13.6967 22.1669L13.7348 22.3143H14.1281V21.0746H10.8355V21.5499H11.2996V24.4222H10.8355V24.8972H12.6591V24.4222H12.113V23.3081H13.2379C13.2818 23.2153 13.298 23.1444 13.298 23.0352C13.298 22.9313 13.2818 22.8658 13.2379 22.773H12.113V21.5499H13.0851ZM29.6759 18.0381C29.6759 17.4373 29.3099 17.0224 28.6218 16.8642L27.9282 16.7057C27.5241 16.6129 27.3551 16.4544 27.3551 16.1872C27.3551 15.8647 27.6118 15.6627 28.1141 15.6627C28.6164 15.6627 28.9112 15.8431 29.0259 16.2688L29.0751 16.4544H29.4681V15.5099C29.0259 15.2859 28.5563 15.1715 28.0811 15.1715C27.1473 15.1715 26.5469 15.6191 26.5469 16.3397C26.5469 16.8969 26.896 17.3064 27.568 17.4539L28.2615 17.6067C28.7037 17.7052 28.8677 17.8799 28.8677 18.1693C28.8677 18.5242 28.5999 18.7208 28.0648 18.7208C27.4587 18.7208 27.1473 18.4804 27.011 18.0219L26.9399 17.7868H26.5469V18.8574C27.0438 19.103 27.5187 19.2123 28.1576 19.2123C29.0751 19.2123 29.6759 18.7535 29.6759 18.0381ZM26.1806 17.7979H25.7876L25.7438 17.9892C25.6345 18.4749 25.4817 18.6278 25.1214 18.6278H24.3624V15.7557H24.8812V15.2805H23.0843V15.7557H23.5488V18.6278H23.0843V19.103H26.1806V17.7979ZM22.7402 17.7979H22.3469L22.3034 17.9892C22.1941 18.4749 22.0413 18.6278 21.681 18.6278H20.9217V15.7557H21.4405V15.2805H19.644V15.7557H20.1081V18.6278H19.644V19.103H22.7402V17.7979ZM11.6272 19.103L10.6658 15.7557H10.229V15.2805H12.0094V15.7557H11.496L12.1349 18.06L12.8993 15.2805H13.6859L14.4665 18.0654L15.0946 15.7557H14.5595V15.2805H19.1906V16.5201H18.7973L18.7592 16.3727C18.6388 15.914 18.5133 15.7557 18.1476 15.7557H17.2412V16.9077H18.3388C18.3824 17.0005 18.3986 17.0663 18.3986 17.1698C18.3986 17.2791 18.3824 17.3499 18.3388 17.443H17.2412V18.6278H18.1857C18.5406 18.6278 18.6991 18.4749 18.8084 17.9892L18.8519 17.7979H19.2452V19.103H15.9634V18.6278H16.4276V15.7557H15.6734L14.7178 19.103H13.9588L13.1833 16.3292L12.3862 19.103H11.6272Z" fill="#FEFEFE"/>
</g>
<defs>
<clipPath id="clip0_820_3789">
<rect width="40" height="40" fill="white"/>
</clipPath>
</defs>
</svg>

<svg xmlns="http://www.w3.org/2000/svg" width="40" height="40" fill="none" viewBox="0 0 40 40"><g clip-path="url(#wfcon_svg-a)"><path fill="#F8D2D3" d="M20 0c11.046 0 20 8.954 20 20s-8.954 20-20 20S0 31.046 0 20 8.954 0 20 0"/><path fill="#DD1E25" d="M26 6a8 8 0 0 1 8 8v12a8 8 0 0 1-8 8H14a8 8 0 0 1-8-8V14a8 8 0 0 1 8-8z"/><path fill="#FEFEFE" d="M28.911 22.98c0-.966-.399-1.529-1.136-1.529s-1.135.563-1.135 1.53c0 .972.393 1.529 1.135 1.529.743 0 1.136-.557 1.136-1.53m.896 0c0 1.19-.847 2.026-2.032 2.026-1.18 0-2.03-.835-2.03-2.026 0-1.184.856-2.025 2.03-2.025 1.18 0 2.032.84 2.032 2.026m-6.138.175c0 .11.016.18.06.268h.65v.966a1.7 1.7 0 0 1-.645.126c-.786 0-1.196-.562-1.196-1.535s.41-1.534 1.152-1.534c.497 0 .787.246.956.672l.06.152h.393v-.977a3.2 3.2 0 0 0-1.447-.338c-1.201 0-2.01.802-2.01 2.03 0 1.235.787 2.021 2.01 2.021.486 0 .989-.136 1.53-.404v-1.704h-1.453a.5.5 0 0 0-.06.257m-3.32-.994c0-.398-.247-.611-.738-.611h-.644v1.228h.644c.486 0 .737-.223.737-.616m-4.277 1.114-.535-1.447-.535 1.447zm5.336 1.19c.032.06.049.132.049.225a.45.45 0 0 1-.05.224 3 3 0 0 1-.425.027c-.53 0-.787-.218-.847-.726l-.022-.192c-.065-.551-.245-.764-.846-.764h-.3v1.163h.518v.475H16.05v-.475h.447l-.25-.683h-1.42l-.252.683h.459v.475h-1.447v-.475h.382l1.338-3.347h.726l1.365 3.347h.754V21.55h-.464v-.475h2.195c.781 0 1.289.387 1.289 1.01 0 .617-.508.945-1 .967v.016c.497.038.7.317.749.748l.021.202c.033.317.099.459.35.459a1 1 0 0 0 .114-.011m-8.323-2.915c.366 0 .492.158.612.617l.038.147h.393v-1.24h-3.293v.476h.465v2.872h-.465v.475h1.824v-.475h-.546v-1.114h1.125a.6.6 0 0 0 .06-.273.54.54 0 0 0-.06-.262h-1.125V21.55zm16.59-3.512c0-.6-.365-1.016-1.053-1.174l-.694-.158c-.404-.093-.573-.252-.573-.519 0-.322.257-.524.76-.524.501 0 .796.18.91.606l.05.185h.393v-.944a3.06 3.06 0 0 0-1.387-.338c-.934 0-1.534.447-1.534 1.168 0 .557.349.966 1.021 1.114l.694.153c.442.098.606.273.606.562 0 .355-.268.552-.803.552-.606 0-.918-.24-1.054-.7l-.071-.234h-.393v1.07c.497.246.972.355 1.61.355.918 0 1.519-.459 1.519-1.174m-3.494-.24h-.393l-.044.191c-.11.486-.262.639-.623.639h-.759v-2.872h.52v-.476h-1.798v.476h.465v2.872h-.465v.475h3.097zm-3.44 0h-.394l-.044.191c-.109.486-.262.639-.622.639h-.76v-2.872h.52v-.476h-1.797v.476h.464v2.872h-.464v.475h3.096zm-11.114 1.305-.961-3.347h-.437v-.476h1.78v.476h-.513l.639 2.304.764-2.78h.787l.78 2.785.629-2.31h-.536v-.475h4.632v1.24h-.394l-.038-.147c-.12-.459-.246-.617-.611-.617h-.907v1.152h1.098c.043.092.06.158.06.262 0 .11-.017.18-.06.273H17.24v1.185h.945c.355 0 .513-.153.622-.639l.044-.191h.393v1.305h-3.282v-.475h.465v-2.872h-.755l-.955 3.347h-.76l-.775-2.774-.797 2.774z"/></g><defs><clipPath id="wfcon_svg-a"><path fill="#fff" d="M0 0h40v40H0z"/></clipPath></defs></svg>
